icons/mobile/24/svg/help-circle-24.svg

<svg width="24" height="24" viewBox="0 0 24 24" fill="none" xmlns="http://www.w3.org/2000/svg">
<path d="M12.126 15.75C12.6783 15.75 13.126 16.1977 13.126 16.75C13.126 17.3023 12.6783 17.75 12.126 17.75C11.5737 17.75 11.126 17.3023 11.126 16.75C11.126 16.1977 11.5737 15.75 12.126 15.75Z" fill="black"/>
<path d="M12.1221 6.7998C13.8601 6.79982 15.2754 8.21514 15.2754 9.95312C15.2753 11.171 14.5619 12.2916 13.458 12.8076C13.174 12.9416 12.998 13.192 12.999 13.4609V13.79C13 14.273 12.609 14.665 12.126 14.666L12.125 14.668C11.642 14.6679 11.25 14.275 11.25 13.792V13.4639C11.248 12.5069 11.8099 11.6486 12.7158 11.2246C13.2078 10.9946 13.5253 10.4961 13.5254 9.9541C13.5254 9.18111 12.8961 8.5508 12.1221 8.55078C11.4341 8.55078 10.8384 9.06226 10.7354 9.73926C10.6623 10.2171 10.2141 10.5456 9.73828 10.4717C9.26028 10.3987 8.93188 9.95161 9.00488 9.47461C9.23703 7.95078 10.5772 6.7998 12.1221 6.7998Z" fill="black"/>
<path fill-rule="evenodd" clip-rule="evenodd" d="M12 2C17.5228 2 22 6.47715 22 12C22 17.5228 17.5228 22 12 22C6.47715 22 2 17.5228 2 12C2 6.47715 6.47715 2 12 2ZM12 3.75C7.44365 3.75 3.75 7.44365 3.75 12C3.75 16.5563 7.44365 20.25 12 20.25C16.5563 20.25 20.25 16.5563 20.25 12C20.25 7.44365 16.5563 3.75 12 3.75Z" fill="black"/>
</svg>

<!-- This Source Code Form is subject to the terms of the Mozilla Public
   - License, v. 2.0. If a copy of the MPL was not distributed with this
   - file, You can obtain one at http://mozilla.org/MPL/2.0/. -->
<svg xmlns="http://www.w3.org/2000/svg" width="24" height="24" fill="none" viewBox="0 0 24 24">
    <path fill="#000" d="M12.126 15.75a1 1 0 1 1 0 2 1 1 0 0 1 0-2m-.004-8.95a3.16 3.16 0 0 1 3.153 3.153 3.16 3.16 0 0 1-1.817 2.855c-.284.134-.46.384-.459.653v.329a.874.874 0 0 1-.873.876l-.001.002a.876.876 0 0 1-.875-.876v-.328c-.002-.957.56-1.815 1.466-2.24.492-.23.81-.728.81-1.27 0-.773-.63-1.403-1.404-1.403a1.41 1.41 0 0 0-1.387 1.188.875.875 0 0 1-1.73-.264A3.17 3.17 0 0 1 12.122 6.8" />
    <path fill="#000" fill-rule="evenodd" d="M12 2c5.523 0 10 4.477 10 10s-4.477 10-10 10S2 17.523 2 12 6.477 2 12 2m0 1.75a8.25 8.25 0 1 0 0 16.5 8.25 8.25 0 0 0 0-16.5" clip-rule="evenodd" />
</svg>
